48x48/apps/inkscape-logo.svg

<svg xmlns="http://www.w3.org/2000/svg" width="48" height="48" version="1">
 <path style="opacity:0.2;fill-rule:evenodd" d="M 23.997647,4.0000425 C 22.800771,4.0005307 21.635684,4.449614 20.718412,5.39848 L 4.3945046,22.257854 C 3.4950329,23.188393 3.0178995,24.414533 3,25.628948 c -2.691e-4,0.01847 0,0.0638 0,0.08398 -1.694e-4,3.613083 9.129537,0.103993 9.99981,4.521484 0.470905,2.390783 -4.9999052,1.295709 -4.9999052,3.701172 0,2.821685 8.9103512,0.520642 10.8005752,3.207031 1.446918,2.056362 -3.749501,2.144621 -2.601512,4.113281 0.984761,1.688746 4.506372,0.607283 5.093653,2.876953 0.670809,2.592603 4.989581,2.303693 7.429545,0.248047 1.495715,-1.260125 -1.697032,-2.049129 -0.337884,-3.455078 1.359058,-1.406049 7.976828,-1.141647 7.615089,-4.193359 -0.239403,-2.01966 -2.961244,-2.242103 -2.999942,-4.523438 -0.135137,-1.93202 2.168448,-1.368283 9.128732,-3.291015 2.783113,-1.307586 2.881639,-2.002802 2.871039,-3.207031 -2.2e-4,-0.02387 0,-0.05656 0,-0.08203 -0.01585,-1.214316 -0.577153,-2.440585 -1.476534,-3.371094 L 27.278834,5.39848 C 26.361363,4.4495144 25.195877,4.0005308 23.9996,4.0000425 Z M 43.155485,33.001995 c -0.318012,-0.01155 -0.638941,0.01897 -0.865217,0.0918 -0.426516,0.141569 -2.447729,0.223129 -2.281207,1.992188 1.830592,0.884117 4.622323,1.587209 4.954984,-0.181641 0.249754,-1.326461 -0.854379,-1.861744 -1.80856,-1.902344 z m -33.032574,5.013672 c -0.1783315,0.02443 -0.3003117,0.109773 -0.4746001,0.189453 -1.3937106,0.636831 -2.3274573,1.977164 -1.0253711,2.5625 1.3022784,0.585197 2.1728392,-0.03406 3.3143902,-0.759766 1.141744,-0.726053 1.109902,-0.858594 1.027324,-1.138671 -0.158264,0.03801 -1.195975,-0.738074 -2.289019,-0.853516 -0.182143,-0.01831 -0.374441,-0.02443 -0.552724,0 z"/>
 <path style="fill:#4f4f4f;fill-rule:evenodd" d="m 23.997647,3 c -1.196876,4.882e-4 -2.361963,0.4495715 -3.279235,1.3984375 L 4.3945046,21.257812 C 3.4950329,22.188351 3.0178995,23.414491 3,24.628906 c -2.691e-4,0.01847 0,0.0638 0,0.08398 -1.694e-4,3.613083 9.129537,0.103993 9.99981,4.521484 0.470905,2.390783 -4.9999052,1.295709 -4.9999052,3.701172 0,2.821685 8.9103512,0.520642 10.8005752,3.207031 1.446918,2.056362 -3.749501,2.144621 -2.601512,4.113281 0.984761,1.688746 4.506372,0.607283 5.093653,2.876953 0.670809,2.592603 4.989581,2.303693 7.429545,0.248047 1.495715,-1.260125 -1.697032,-2.049129 -0.337884,-3.455078 1.359058,-1.406049 7.976828,-1.141647 7.615089,-4.193359 -0.239403,-2.01966 -2.961244,-2.242103 -2.999942,-4.523438 -0.135137,-1.93202 2.168448,-1.368283 9.128732,-3.291015 2.783113,-1.307586 2.881639,-2.002802 2.871039,-3.207031 -2.2e-4,-0.02387 0,-0.05656 0,-0.08203 -0.01585,-1.214316 -0.577153,-2.440585 -1.476534,-3.371094 L 27.278834,4.3984375 C 26.361363,3.4494719 25.195877,3.0004883 23.9996,3 Z m 19.157838,29.001953 c -0.318012,-0.01155 -0.638941,0.01897 -0.865217,0.0918 -0.426516,0.141569 -2.447729,0.223129 -2.281207,1.992188 1.830592,0.884117 4.622323,1.587209 4.954984,-0.181641 0.249754,-1.326461 -0.854379,-1.861744 -1.80856,-1.902344 z m -33.032574,5.013672 c -0.1783315,0.02443 -0.3003117,0.109773 -0.4746001,0.189453 -1.3937106,0.636831 -2.3274573,1.977164 -1.0253711,2.5625 1.3022784,0.585197 2.1728392,-0.03406 3.3143902,-0.759766 1.141744,-0.726053 1.109902,-0.858594 1.027324,-1.138671 -0.158264,0.03801 -1.195975,-0.738074 -2.289019,-0.853516 -0.182143,-0.01831 -0.374441,-0.02443 -0.552724,0 z"/>
 <path style="opacity:0.2;fill-rule:evenodd" d="m 24.074997,9.0001443 c 1.2317,0.010479 4.6067,4.1870997 7.6179,7.3149997 0.847,1.1365 -0.32762,2.3013 -0.32762,2.3013 l -6.307,-3.452 -2.785,3.781 -2.457,-3.698 -1.475,5.753 -4.341,-2.63 1.147,-1.48 6.798,-6.9856997 c 0.52145,-0.53156 0.92076,-0.91351 2.1297,-0.9041 z"/>
 <path style="fill:#f4f4f7;fill-rule:evenodd" d="m 24.074997,8.0001018 c 1.2317,0.010479 4.6067,4.1871002 7.6179,7.3150002 0.847,1.1365 -0.32762,2.3013 -0.32762,2.3013 l -6.307,-3.452 -2.785,3.781 -2.457,-3.698 -1.475,5.753 -4.341,-2.63 1.147,-1.48 6.798,-6.9857002 c 0.52145,-0.53156 0.92076,-0.91351 2.1297,-0.9041 z"/>
 <path style="fill:#f4f4f7;fill-rule:evenodd;opacity:0.1" d="M 23.998047 3 C 22.801171 3.0004882 21.636022 3.4495715 20.71875 4.3984375 L 4.3945312 21.257812 C 3.4950595 22.188351 3.0178995 23.414491 3 24.628906 C 2.9997309 24.647376 3 24.692711 3 24.712891 C 2.9999927 24.867683 3.0225474 25.004935 3.0546875 25.134766 C 3.1775099 24.087713 3.6174202 23.061765 4.3945312 22.257812 L 20.71875 5.3984375 C 21.636022 4.4495715 22.801171 4.0004882 23.998047 4 L 24 4 C 25.196277 4.0004883 26.361826 4.4494719 27.279297 5.3984375 L 43.523438 22.257812 C 44.356562 23.119772 44.878711 24.236386 44.966797 25.361328 C 44.991977 25.157278 45.002063 24.945274 45 24.710938 C 44.99978 24.687068 45 24.654376 45 24.628906 C 44.98415 23.41459 44.422819 22.188322 43.523438 21.257812 L 27.279297 4.3984375 C 26.361826 3.4494719 25.196277 3.0004883 24 3 L 23.998047 3 z M 12.925781 29.960938 C 12.219873 31.408404 8 30.822078 8 32.935547 C 8 33.119969 8.0396494 33.280349 8.1113281 33.423828 C 8.8555376 31.690826 13.432853 32.431967 13 30.234375 C 12.980956 30.137708 12.952553 30.050171 12.925781 29.960938 z M 33.050781 31.667969 C 33.005514 31.824865 32.985381 31.999982 33 32.208984 C 33.036608 34.367084 35.469625 34.68435 35.935547 36.421875 C 35.995303 36.210682 36.030155 35.986812 36 35.732422 C 35.777822 33.858077 33.420203 33.528728 33.050781 31.667969 z M 43.15625 32.001953 C 42.838238 31.990403 42.517292 32.02092 42.291016 32.09375 C 41.8645 32.235319 39.843244 32.316879 40.009766 34.085938 C 40.065152 34.112688 40.128495 34.135754 40.185547 34.162109 C 40.661387 33.290606 41.957681 33.20439 42.291016 33.09375 C 42.517292 33.02092 42.838238 32.990403 43.15625 33.001953 C 43.871021 33.032366 44.668997 33.340563 44.919922 34.050781 C 44.934404 34.001703 44.954774 33.957841 44.964844 33.904297 C 45.214598 32.577836 44.110431 32.042553 43.15625 32.001953 z M 10.123047 37.015625 C 9.9447154 37.040055 9.8227259 37.125398 9.6484375 37.205078 C 8.4800424 37.738955 7.6532858 38.762381 8.1777344 39.425781 C 8.4434485 38.964462 8.9896985 38.506077 9.6484375 38.205078 C 9.8227259 38.125398 9.9447154 38.040055 10.123047 38.015625 C 10.30133 37.991195 10.493638 37.997315 10.675781 38.015625 C 11.37538 38.089513 12.024711 38.421903 12.462891 38.650391 C 13.035065 38.236642 13.030847 38.093001 12.964844 37.869141 C 12.80658 37.907151 11.768825 37.131067 10.675781 37.015625 C 10.493638 36.997315 10.30133 36.991195 10.123047 37.015625 z M 18.886719 37.302734 C 18.166742 38.335299 15.33648 38.743233 16.195312 40.244141 C 16.901333 39.206894 19.722337 38.796283 18.886719 37.302734 z M 28.208984 41.146484 C 27.681908 41.936109 28.541118 42.535491 28.939453 43.160156 C 29.531554 42.421299 28.596789 41.83056 28.208984 41.146484 z"/>
</svg>

<svg xmlns="http://www.w3.org/2000/svg" width="48" height="48" version="1"><path style="opacity:.2;fill-rule:evenodd" d="M23.998 4c-1.197 0-2.362.45-3.28 1.398L4.395 22.258A4.978 4.978 0 0 0 3 25.628v.085c0 3.613 9.13.104 10 4.521.47 2.391-5 1.296-5 3.702 0 2.821 8.91.52 10.8 3.207 1.447 2.056-3.749 2.144-2.601 4.113.985 1.689 4.506.607 5.094 2.877.67 2.592 4.99 2.304 7.43.248 1.495-1.26-1.698-2.05-.339-3.455 1.36-1.406 7.977-1.142 7.615-4.194-.239-2.02-2.96-2.242-3-4.523-.135-1.932 2.169-1.368 9.13-3.291 2.782-1.308 2.88-2.003 2.87-3.207v-.082c-.016-1.214-.577-2.44-1.476-3.371L27.279 5.398A4.497 4.497 0 0 0 23.999 4zm19.157 29.002c-.318-.012-.638.019-.865.092-.426.141-2.447.223-2.28 1.992 1.83.884 4.621 1.587 4.954-.182.25-1.326-.854-1.861-1.809-1.902zm-33.032 5.014c-.178.024-.3.11-.475.19-1.393.636-2.327 1.976-1.025 2.562 1.302.585 2.173-.034 3.314-.76 1.142-.726 1.11-.859 1.028-1.139-.159.038-1.196-.738-2.29-.853a2.39 2.39 0 0 0-.552 0z"/><path style="fill:#4f4f4f;fill-rule:evenodd" d="M23.998 3c-1.197 0-2.362.45-3.28 1.398L4.395 21.258A4.978 4.978 0 0 0 3 24.628v.085c0 3.613 9.13.104 10 4.521.47 2.391-5 1.296-5 3.702 0 2.821 8.91.52 10.8 3.207 1.447 2.056-3.749 2.144-2.601 4.113.985 1.689 4.506.607 5.094 2.877.67 2.592 4.99 2.304 7.43.248 1.495-1.26-1.698-2.05-.339-3.455 1.36-1.406 7.977-1.142 7.615-4.194-.239-2.02-2.96-2.242-3-4.523-.135-1.932 2.169-1.368 9.13-3.291 2.782-1.308 2.88-2.003 2.87-3.207v-.082c-.016-1.214-.577-2.44-1.476-3.371L27.279 4.398A4.497 4.497 0 0 0 23.999 3zm19.157 29.002c-.318-.012-.638.019-.865.092-.426.141-2.447.223-2.28 1.992 1.83.884 4.621 1.587 4.954-.182.25-1.326-.854-1.861-1.809-1.902zm-33.032 5.014c-.178.024-.3.11-.475.19-1.393.636-2.327 1.976-1.025 2.562 1.302.585 2.173-.034 3.314-.76 1.142-.726 1.11-.859 1.028-1.139-.159.038-1.196-.738-2.29-.853a2.39 2.39 0 0 0-.552 0z"/><path style="opacity:.2;fill-rule:evenodd" d="M24.075 9c1.232.01 4.607 4.187 7.618 7.315.847 1.137-.328 2.301-.328 2.301l-6.307-3.452-2.785 3.781-2.457-3.698L18.341 21l-4.34-2.63 1.146-1.48 6.798-6.985c.522-.532.921-.914 2.13-.904z"/><path style="fill:#f4f4f7;fill-rule:evenodd" d="M24.075 8c1.232.01 4.607 4.187 7.618 7.315.847 1.137-.328 2.301-.328 2.301l-6.307-3.452-2.785 3.781-2.457-3.698L18.341 20l-4.34-2.63 1.146-1.48 6.798-6.985c.522-.532.921-.914 2.13-.904z"/><path style="fill:#f4f4f7;fill-rule:evenodd;opacity:.1" d="M23.998 3c-1.197 0-2.362.45-3.28 1.398L4.396 21.258A4.978 4.978 0 0 0 3 24.628v.085c0 .155.023.292.055.422a4.955 4.955 0 0 1 1.34-2.877l16.324-16.86A4.496 4.496 0 0 1 23.998 4H24c1.196 0 2.362.45 3.28 1.398l16.243 16.86c.834.862 1.356 1.978 1.444 3.103.025-.204.035-.416.033-.65v-.082c-.016-1.214-.577-2.44-1.477-3.371L27.28 4.398A4.497 4.497 0 0 0 24 3h-.002zM12.926 29.96C12.22 31.409 8 30.823 8 32.937c0 .184.04.344.111.488.745-1.733 5.322-.992 4.889-3.19-.019-.096-.047-.184-.074-.273zm20.125 1.708a1.532 1.532 0 0 0-.051.541c.037 2.158 2.47 2.475 2.936 4.213.06-.211.094-.435.064-.69-.222-1.874-2.58-2.203-2.95-4.064zm10.105.334c-.318-.012-.639.019-.865.092-.426.141-2.448.223-2.281 1.992.055.027.118.05.176.076.475-.871 1.772-.958 2.105-1.068.226-.073.547-.104.865-.092.715.03 1.513.339 1.764 1.049.014-.05.035-.093.045-.147.25-1.326-.855-1.861-1.809-1.902zm-33.033 5.014c-.178.024-.3.11-.475.19-1.168.533-1.995 1.556-1.47 2.22.265-.462.812-.92 1.47-1.22.175-.08.297-.166.475-.19a2.39 2.39 0 0 1 .553 0c.7.074 1.349.406 1.787.634.572-.413.568-.557.502-.78-.158.037-1.196-.739-2.29-.854a2.39 2.39 0 0 0-.552 0zm8.764.287c-.72 1.032-3.55 1.44-2.692 2.941.706-1.037 3.527-1.448 2.692-2.941zm9.322 3.843c-.527.79.332 1.39.73 2.014.593-.739-.342-1.33-.73-2.014z"/></svg>
